svgs/sharp-solid/scroll.svg

<svg xmlns="http://www.w3.org/2000/svg" viewBox="0 0 576 512"><!--! Font Awesome Pro 6.4.2 by @fontawesome - https://fontawesome.com License - https://fontawesome.com/license (Commercial License) Copyright 2023 Fonticons, Inc. --><path d="M0 80v80H48 96V80c0-26.5-21.5-48-48-48S0 53.5 0 80zM112 32c10 13.4 16 30 16 48V384c0 35.3 28.7 64 64 64s64-28.7 64-64V336 320h16H480V128c0-53-43-96-96-96H112zM464 480c61.9 0 112-50.1 112-112V352H288v32c0 53-43 96-96 96H368h96z"/></svg>

<svg xmlns="http://www.w3.org/2000/svg" viewBox="0 0 576 512"><!--! Font Awesome Pro 6.6.0 by @fontawesome - https://fontawesome.com License - https://fontawesome.com/license (Commercial License) Copyright 2024 Fonticons, Inc. --><path d="M0 80l0 80 48 0 48 0 0-80c0-26.5-21.5-48-48-48S0 53.5 0 80zM112 32c10 13.4 16 30 16 48l0 304c0 35.3 28.7 64 64 64s64-28.7 64-64l0-48 0-16 16 0 208 0 0-192c0-53-43-96-96-96L112 32zM464 480c61.9 0 112-50.1 112-112l0-16-288 0 0 32c0 53-43 96-96 96l176 0 96 0z"/></svg>
